UI/Tools/SVG/line-various_outline_24px.svg

<svg xmlns="http://www.w3.org/2000/svg" width="24" height="24" viewBox="0 0 24 24"><rect width="24" height="24" style="fill:none"/><path d="M2,9H22v3H2ZM2,22H7V20H2Zm15,0h5V20H17ZM9.5,22h5V20h-5ZM11,15H2v2h9Zm2,2h9V15H13ZM2,2V6H22V2Z"/></svg>

<svg width="24" height="24" viewBox="0 0 24 24" fill="none" xmlns="http://www.w3.org/2000/svg">
<path d="M2 9H22V12H2V9ZM2 22H7V20H2V22ZM17 22H22V20H17V22ZM9.5 22H14.5V20H9.5V22ZM11 15H2V17H11V15ZM13 17H22V15H13V17ZM2 2V6H22V2H2Z" fill="#0F1621"/>
</svg>
